Newaita-dark/actions/24/deep-history.svg

<svg height="24" viewBox="0 0 24 24" width="24" xmlns="http://www.w3.org/2000/svg"><g fill="#e0e0e0"><path d="m11.90625 2.171875c-5.496094 0-9.921875 4.425781-9.921875 9.921875 0 4.273438 2.675781 7.902344 6.449219 9.304688v-2.15625c-2.648438-1.285157-4.464844-3.996094-4.464844-7.148438 0-4.398438 3.539062-7.9375 7.9375-7.9375s7.9375 3.539062 7.9375 7.9375c0 1.054688-.203125 2.058594-.570312 2.976562h2.105468c.292969-.9375.453125-1.9375.453125-2.976562 0-5.496094-4.425781-9.921875-9.925781-9.921875zm0 0"/><path d="m11.410156 5.148438c-.273437 0-.496094.222656-.496094.496093v6.449219c0 .550781.445313.992188.992188.992188.550781 0 .992188-.441407.992188-.992188v-6.449219c0-.273437-.21875-.496093-.496094-.496093zm0 0"/><path d="m18.492188 9.820312c-.070313-.265624-.34375-.421874-.609376-.351562l-6.230468 1.671875c-.53125.140625-.84375.683594-.699219 1.214844.140625.53125.683594.84375 1.214844.699219l6.230469-1.667969c.265624-.070313.421874-.34375.351562-.609375zm0 0"/><path d="m14.859375 16.066406c-.160156 0-.316406.003906-.472656.003906-.355469-.007812-.6875.179688-.867188.488282-.179687.308594-.179687.6875 0 .996094.179688.308593.511719.496093.867188.488281 1.242187 0 2.371093.050781 2.996093.34375.625.289062.980469.640625.980469 2.140625h-.007812v1.03125c0 .273437.222656.496094.496093.496094h.992188c.277344 0 .496094-.222657.496094-.496094v-1.03125h-.003906c0-1.96875-.882813-3.355469-2.121094-3.933594-1.078125-.503906-2.25-.527344-3.355469-.527344zm0 0"/><path d="m14.386719 19.535156v-4.960937l-3.96875 2.480469zm0 0"/><path d="m14.859375 16.066406c-.160156 0-.316406.003906-.472656.003906-.355469-.007812-.6875.179688-.867188.488282-.179687.308594-.179687.6875 0 .996094.179688.308593.511719.496093.867188.488281 1.242187 0 2.371093.050781 2.996093.34375.625.289062.980469.640625.980469 2.140625h-.007812v1.03125c0 .273437.222656.496094.496093.496094h.992188c.277344 0 .496094-.222657.496094-.496094v-1.03125h-.003906c0-1.96875-.882813-3.355469-2.121094-3.933594-1.078125-.503906-2.25-.527344-3.355469-.527344zm0 0"/></g></svg>

<svg xmlns="http://www.w3.org/2000/svg" xmlns:xlink="http://www.w3.org/1999/xlink" width="24px" height="24px" viewBox="0 0 24 24" version="1.1">
<g id="surface1">
     <defs>
  <style id="current-color-scheme" type="text/css">
   .ColorScheme-Text { color:#eeeeee; } .ColorScheme-Highlight { color:#424242; }
  </style>
 </defs>
<path style="fill:currentColor" class="ColorScheme-Text" d="M 11.90625 2.171875 C 6.410156 2.171875 1.984375 6.597656 1.984375 12.09375 C 1.984375 16.367188 4.660156 19.996094 8.433594 21.398438 L 8.433594 19.242188 C 5.785156 17.957031 3.96875 15.246094 3.96875 12.09375 C 3.96875 7.695312 7.507812 4.15625 11.90625 4.15625 C 16.304688 4.15625 19.84375 7.695312 19.84375 12.09375 C 19.84375 13.148438 19.640625 14.152344 19.273438 15.070312 L 21.378906 15.070312 C 21.671875 14.132812 21.832031 13.132812 21.832031 12.09375 C 21.832031 6.597656 17.40625 2.171875 11.90625 2.171875 Z M 11.90625 2.171875 "/>
     <defs>
  <style id="current-color-scheme" type="text/css">
   .ColorScheme-Text { color:#eeeeee; } .ColorScheme-Highlight { color:#424242; }
  </style>
 </defs>
<path style="fill:currentColor" class="ColorScheme-Text" d="M 11.410156 5.148438 C 11.136719 5.148438 10.914062 5.371094 10.914062 5.644531 L 10.914062 12.09375 C 10.914062 12.644531 11.359375 13.085938 11.90625 13.085938 C 12.457031 13.085938 12.898438 12.644531 12.898438 12.09375 L 12.898438 5.644531 C 12.898438 5.371094 12.679688 5.148438 12.402344 5.148438 Z M 11.410156 5.148438 "/>
     <defs>
  <style id="current-color-scheme" type="text/css">
   .ColorScheme-Text { color:#eeeeee; } .ColorScheme-Highlight { color:#424242; }
  </style>
 </defs>
<path style="fill:currentColor" class="ColorScheme-Text" d="M 18.492188 9.820312 C 18.421875 9.554688 18.148438 9.398438 17.882812 9.46875 L 11.652344 11.140625 C 11.121094 11.28125 10.808594 11.824219 10.953125 12.355469 C 11.09375 12.886719 11.636719 13.199219 12.167969 13.054688 L 18.398438 11.386719 C 18.664062 11.316406 18.820312 11.042969 18.75 10.777344 Z M 18.492188 9.820312 "/>
     <defs>
  <style id="current-color-scheme" type="text/css">
   .ColorScheme-Text { color:#eeeeee; } .ColorScheme-Highlight { color:#424242; }
  </style>
 </defs>
<path style="fill:currentColor" class="ColorScheme-Text" d="M 14.859375 16.066406 C 14.699219 16.066406 14.542969 16.070312 14.386719 16.070312 C 14.03125 16.0625 13.699219 16.25 13.519531 16.558594 C 13.339844 16.867188 13.339844 17.246094 13.519531 17.554688 C 13.699219 17.863281 14.03125 18.050781 14.386719 18.042969 C 15.628906 18.042969 16.757812 18.09375 17.382812 18.386719 C 18.007812 18.675781 18.363281 19.027344 18.363281 20.527344 L 18.355469 20.527344 L 18.355469 21.558594 C 18.355469 21.832031 18.578125 22.054688 18.851562 22.054688 L 19.84375 22.054688 C 20.121094 22.054688 20.339844 21.832031 20.339844 21.558594 L 20.339844 20.527344 L 20.335938 20.527344 C 20.335938 18.558594 19.453125 17.171875 18.214844 16.59375 C 17.136719 16.089844 15.964844 16.066406 14.859375 16.066406 Z M 14.859375 16.066406 "/>
     <defs>
  <style id="current-color-scheme" type="text/css">
   .ColorScheme-Text { color:#eeeeee; } .ColorScheme-Highlight { color:#424242; }
  </style>
 </defs>
<path style="fill:currentColor" class="ColorScheme-Text" d="M 14.386719 19.535156 L 14.386719 14.574219 L 10.417969 17.054688 Z M 14.386719 19.535156 "/>
     <defs>
  <style id="current-color-scheme" type="text/css">
   .ColorScheme-Text { color:#eeeeee; } .ColorScheme-Highlight { color:#424242; }
  </style>
 </defs>
<path style="fill:currentColor" class="ColorScheme-Text" d="M 14.859375 16.066406 C 14.699219 16.066406 14.542969 16.070312 14.386719 16.070312 C 14.03125 16.0625 13.699219 16.25 13.519531 16.558594 C 13.339844 16.867188 13.339844 17.246094 13.519531 17.554688 C 13.699219 17.863281 14.03125 18.050781 14.386719 18.042969 C 15.628906 18.042969 16.757812 18.09375 17.382812 18.386719 C 18.007812 18.675781 18.363281 19.027344 18.363281 20.527344 L 18.355469 20.527344 L 18.355469 21.558594 C 18.355469 21.832031 18.578125 22.054688 18.851562 22.054688 L 19.84375 22.054688 C 20.121094 22.054688 20.339844 21.832031 20.339844 21.558594 L 20.339844 20.527344 L 20.335938 20.527344 C 20.335938 18.558594 19.453125 17.171875 18.214844 16.59375 C 17.136719 16.089844 15.964844 16.066406 14.859375 16.066406 Z M 14.859375 16.066406 "/>
</g>
</svg>
